resources/svg/code-inline.svg

<svg xmlns="http://www.w3.org/2000/svg" fill="none" viewBox="0 0 14 14"><path fill="currentColor" fill-rule="evenodd" d="M5.03919 4.3377C5.50043 4.03393 5.62808 3.41377 5.32431 2.95253C5.02054 2.49129 4.40038 2.36363 3.93914 2.6674C2.39671 3.68324 1.51473 4.46028 0.522682 5.89815C0.0651932 6.56123 0.0651932 7.4388 0.522682 8.10188C1.51473 9.53975 2.39671 10.3168 3.93914 11.3326C4.40038 11.6364 5.02054 11.5087 5.32431 11.0475C5.62808 10.5863 5.50043 9.9661 5.03919 9.66233C3.66658 8.75834 2.99302 8.1534 2.19236 7.00001C2.99302 5.84663 3.66658 5.24169 5.03919 4.3377ZM8.96082 4.3377C8.49958 4.03393 8.37192 3.41377 8.67569 2.95253C8.97946 2.49129 9.59962 2.36363 10.0609 2.6674C11.6033 3.68324 12.4853 4.46028 13.4773 5.89815C13.9348 6.56123 13.9348 7.4388 13.4773 8.10188C12.4853 9.53975 11.6033 10.3168 10.0609 11.3326C9.59962 11.6364 8.97946 11.5087 8.67569 11.0475C8.37192 10.5863 8.49958 9.9661 8.96082 9.66233C10.3334 8.75834 11.007 8.1534 11.8076 7.00001C11.007 5.84663 10.3334 5.24169 8.96082 4.3377Z" clip-rule="evenodd"></path></svg>

<svg xmlns="http://www.w3.org/2000/svg" fill="none" viewBox="0 0 14 14"><path fill="currentColor" fill-rule="evenodd" d="M5.04 4.338a1 1 0 0 0-1.1-1.67C2.396 3.682 1.514 4.46.522 5.897a1.94 1.94 0 0 0 0 2.204c.992 1.438 1.874 2.215 3.416 3.23a1 1 0 1 0 1.1-1.67C3.667 8.758 2.993 8.153 2.192 7c.801-1.153 1.475-1.758 2.847-2.662Zm3.92 0a1 1 0 1 1 1.1-1.67c1.543 1.015 2.425 1.792 3.417 3.23a1.94 1.94 0 0 1 0 2.204c-.992 1.438-1.874 2.215-3.416 3.23a1 1 0 0 1-1.1-1.67c1.372-.904 2.046-1.509 2.847-2.662-.801-1.153-1.475-1.758-2.847-2.662Z" clip-rule="evenodd"/></svg>
